assets/features/global-acquiring/venmo.svg

<svg width="200" height="200" viewBox="0 0 200 200" fill="none" xmlns="http://www.w3.org/2000/svg">
<rect width="200" height="200" rx="40" fill="#3D95CE"/>
<path d="M146.922 69.7357C146.922 62.3348 145.6 56.1674 141.899 50L111.147 56.2555C113.614 61.2775 114.847 66.2114 114.847 73.6123C114.847 87.0925 104.89 108.15 97.4886 120.485L88.8532 52.5551L53.0781 55.022L69.1152 150H108.679C125.95 127.797 146.922 94.4053 146.922 69.7357Z" fill="white"/>
</svg>

<svg xmlns="http://www.w3.org/2000/svg" width="200" height="200" fill="none" viewBox="0 0 200 200"><rect width="200" height="200" fill="#3d95ce" rx="40"/><path fill="#fff" d="M146.922 69.736c0-7.401-1.322-13.569-5.023-19.736l-30.752 6.255c2.467 5.023 3.7 9.956 3.7 17.357 0 13.48-9.957 34.538-17.358 46.873l-8.636-67.93-35.775 2.467L69.115 150h39.564c17.271-22.203 38.243-55.595 38.243-80.264"/></svg>
